!!!!SEGMENT: pl-sa--l-1643--052_anonim--benedicite-omnia-opera-domini.krn
!!!cenid: 16xx:1410
!!!COM: Anonim
!!!COM-rismid: pe30004985
!!!CDT:
!!!CNT:
!!!OTL: Benedicite omnia opera domini
!!!PDT:
!!!AGN: Sacred
!!!SMS-siglum: PL-SA
!!!SMS-shelfmark: L 1643
!!!SMS-shelfwork: 052 W
!!!SMS-variant:
!!!SMS-altvar:
!!!NIFC-rismid: 1001063315
!!!URL-scan: http://repozytorium.nifc.pl/skany/pl-sa-nut--l1643
!!!ONB-nifc: UWAGA: 8 ksiąg. Primi chori: 1mus Cantus (84-85), C 2dus (83-84), C 3tius (81-82), Bassus (79-80); Secondi chori: Primus Cantus (78-79), C 2dus (81-82), Altus (78-80), Bassus (80-81). UWAGA: Nie dodawać pustych linii, chyba że w rękopisie pojawiają się dodatkowe oznaczenia dotyczące pełnej obsady (a 4, a 8 itp.)
!!!key:
**kern	**text	**kern	**text	**kern	**text	**kern	**text	**kern	**text	**kern	**text	**kern	**text	**kern	**text
*part8	*part8	*part7	*part7	*part6	*part6	*part5	*part5	*part4	*part4	*part3	*part3	*part2	*part2	*part1	*part1
*staff8	*staff8	*staff7	*staff7	*staff6	*staff6	*staff5	*staff5	*staff4	*staff4	*staff3	*staff3	*staff2	*staff2	*staff1	*staff1
*Iempty	*	*Iempty	*	*Iempty	*	*Iempty	*	*Iempty	*	*Iempty	*	*Iempty	*	*Iempty	*
*I"Secondi chori: Bassus	*	*I"Secondi chori: Altus	*	*I"Secondi chori: C 2dus	*	*I"Secondi chori: Primus Cantus	*	*I"Primi chori: Bassus	*	*I"Primi chori: C 3tius	*	*I"Primi chori: C 2dus	*	*I"Primi chori: 1mus Cantus	*
*I'Coro 2 B	*	*I'Coro 2 A	*	*I'Coro 2 C 2	*	*I'Coro 2 C 1	*	*I'Coro 1 B	*	*I'Coro 1 C 3	*	*I'Coro 1 C 2	*	*I'Coro 1 C 1	*
*clefC4	*	*clefC3	*	*clefG2	*	*clefG2	*	*clefC4	*	*clefC3	*	*clefG2	*	*clefG2	*
*k[]	*	*k[]	*	*k[]	*	*k[]	*	*k[]	*	*k[]	*	*k[]	*	*k[]	*
*d:	*	*d:	*	*d:	*	*d:	*	*d:	*	*d:	*	*d:	*	*d:	*
*M2/2	*	*M2/2	*	*M2/2	*	*M2/2	*	*M2/2	*	*M2/2	*	*M2/2	*	*M2/2	*
*met(C|)	*	*met(C|)	*	*met(C|)	*	*met(C|)	*	*met(C|)	*	*met(C|)	*	*met(C|)	*	*met(C|)	*
=1-	=1-	=1-	=1-	=1-	=1-	=1-	=1-	=1-	=1-	=1-	=1-	=1-	=1-	=1-	=1-
!!LO:TX:t=P:problem:oddech jako rozdzielacz słów:global
!	!	!	!	!	!	!	!	!LO:TX:t=P:problem=litera B.color=red	!	!LO:TX:t=P:problem=litera B.color=red	!	!LO:TX:t=P:problem=litera B.color=red	!	!LO:TX:t=P:problem=litera B.color=red	!
00r	.	00r	.	00r	.	00r	.	1.d	Be-	1.f	Be-	1.dd	Be-	1.ff	Be-
=2-	=2-	=2-	=2-	=2-	=2-	=2-	=2-	=2-	=2-	=2-	=2-	=2-	=2-	=2-	=2-
.	.	.	.	.	.	.	.	.	.	.	.	.	.	.	.
.	.	.	.	.	.	.	.	2c\	-ne-	2e\	-ne-	2ee\	-ne-	2gg\	-ne-
=3-	=3-	=3-	=3-	=3-	=3-	=3-	=3-	=3-	=3-	=3-	=3-	=3-	=3-	=3-	=3-
.	.	.	.	.	.	.	.	2.f\	-di-	2.a\	-di-	2.ff\	-di-	2.aa\	-di-
.	.	.	.	.	.	.	.	4f\	-ci-	4a\	-ci-	4ff\	-ci-	4aa\	-ci-
=4-	=4-	=4-	=4-	=4-	=4-	=4-	=4-	=4-	=4-	=4-	=4-	=4-	=4-	=4-	=4-
.	.	.	.	.	.	.	.	1f	-te	1a	-te	1ff	-te	1aa	-te
=5-	=5-	=5-	=5-	=5-	=5-	=5-	=5-	=5-	=5-	=5-	=5-	=5-	=5-	=5-	=5-
00r	.	00r	.	00r	.	00r	.	2r	.	2r	.	2r	.	2r	.
.	.	.	.	.	.	.	.	2.c\	om-	2.g\	om-	2.ee\	om-	2.gg\	om-
=6-	=6-	=6-	=6-	=6-	=6-	=6-	=6-	=6-	=6-	=6-	=6-	=6-	=6-	=6-	=6-
.	.	.	.	.	.	.	.	.	.	.	.	.	.	.	.
.	.	.	.	.	.	.	.	4c\	-ni-	4e\	-ni-	4ee\	-ni-	4gg\	-ni-
.	.	.	.	.	.	.	.	2A/	-a	2a\	-a	2ff\	-a	2aa\	-a
=7-	=7-	=7-	=7-	=7-	=7-	=7-	=7-	=7-	=7-	=7-	=7-	=7-	=7-	=7-	=7-
.	.	.	.	.	.	.	.	2B-X\	o-	2d\	o-	2dd\	o-	2ff\	o-
.	.	.	.	.	.	.	.	4B-\	-pe-	4f\	-pe-	4dd\	-pe-	4ff\	-pe-
.	.	.	.	.	.	.	.	4F/	-ra	4f\	-ra	4ff\	-ra	4aa\	-ra
=8-	=8-	=8-	=8-	=8-	=8-	=8-	=8-	=8-	=8-	=8-	=8-	=8-	=8-	=8-	=8-
.	.	.	.	.	.	.	.	2c\	Do-	2g\	Do-	2ee\	Do-	2gg\	Do-
.	.	.	.	.	.	.	.	4c\	-mi-	4g\	-mi-	4ee\	-mi-	4gg\	-mi-
.	.	.	.	.	.	.	.	4d\	-ni	4d\	-ni	4dd\	-ni	4ff\	-ni
=9-	=9-	=9-	=9-	=9-	=9-	=9-	=9-	=9-	=9-	=9-	=9-	=9-	=9-	=9-	=9-
1r	.	1r	.	1r	.	1r	.	2.A/	Do-	2.e\	Do-	4cc\	Do-	2.ee\	Do-
.	.	.	.	.	.	.	.	.	.	.	.	2dd\	.	.	.
!	!	!	!	!	!	!	!	!	!	!	!	!LO:TX:a:t=P:problem=# above	!	!	!
.	.	.	.	.	.	.	.	4A/	-mi-	4e\	-mi-	4cc#X\	-mi-	4ee\	-mi-
=10-	=10-	=10-	=10-	=10-	=10-	=10-	=10-	=10-	=10-	=10-	=10-	=10-	=10-	=10-	=10-
*	*	*	*	*	*	*	*	*custos:d	*	*	*	*	*	*	*
!LO:TX:t=P:problem=litera B.color=red	!	!LO:TX:t=P:problem=litera B.color=red	!	!LO:TX:t=P:problem=litera B.color=red	!	!LO:TX:t=P:problem=litera B.color=red	!	!	!	!	!	!	!	!	!
1.d	Be-	1.f	Be-	1.dd	Be-	1.ff	Be-	1D 1d	-no	1d	-no	1dd	-no	1ff	-no.
=11-	=11-	=11-	=11-	=11-	=11-	=11-	=11-	=11-	=11-	=11-	=11-	=11-	=11-	=11-	=11-
!	!	!	!	!	!	!	!	!LO:LB:g=original	!	!	!	!	!	!	!
.	.	.	.	.	.	.	.	00r	.	00r	.	00r	.	00r	.
2c\	-ne-	2e\	-ne-	2ee\	-ne-	2gg\	-ne-	.	.	.	.	.	.	.	.
=12-	=12-	=12-	=12-	=12-	=12-	=12-	=12-	=12-	=12-	=12-	=12-	=12-	=12-	=12-	=12-
2.f\	-di-	2.a\	-di-	2.ff\	-di-	2.aa\	-di-	.	.	.	.	.	.	.	.
4f\	-ci-	4a\	-ci-	4ff\	-ci-	4aa\	-ci-	.	.	.	.	.	.	.	.
=13-	=13-	=13-	=13-	=13-	=13-	=13-	=13-	=13-	=13-	=13-	=13-	=13-	=13-	=13-	=13-
1F	-te	1a	-te	1ff	-te	1aa	-te	.	.	.	.	.	.	.	.
=14-	=14-	=14-	=14-	=14-	=14-	=14-	=14-	=14-	=14-	=14-	=14-	=14-	=14-	=14-	=14-
2r	.	2r	.	2r	.	2r	.	.	.	.	.	.	.	.	.
2.c\	om-	2.g\	om-	2.ee\	om-	2.gg\	om-	.	.	.	.	.	.	.	.
=15-	=15-	=15-	=15-	=15-	=15-	=15-	=15-	=15-	=15-	=15-	=15-	=15-	=15-	=15-	=15-
.	.	.	.	.	.	.	.	00r	.	00r	.	00r	.	00r	.
4c\	-ni-	4e\	-ni-	4ee\	-ni-	4gg\	-ni-	.	.	.	.	.	.	.	.
2A/	-a	2a\	-a	2ff\	-a	2aa\	-a	.	.	.	.	.	.	.	.
=16-	=16-	=16-	=16-	=16-	=16-	=16-	=16-	=16-	=16-	=16-	=16-	=16-	=16-	=16-	=16-
2B-X\	o-	2d\	o-	2dd\	o-	2ff\	o-	.	.	.	.	.	.	.	.
4B-\	-pe-	4f\	-pe-	4dd\	-pe-	4ff\	-pe-	.	.	.	.	.	.	.	.
4F/	-ra	4g\	-ra	4ff\	-ra	4aa\	-ra	.	.	.	.	.	.	.	.
=17-	=17-	=17-	=17-	=17-	=17-	=17-	=17-	=17-	=17-	=17-	=17-	=17-	=17-	=17-	=17-
2c\	Do-	2g\	Do-	2ee\	Do-	2gg\	Do-	.	.	.	.	.	.	.	.
!	!	!	!	!LO:TX:t=P:problem=niewyraźne źródło	!	!	!	!	!	!	!	!	!	!	!
4c\	-mi-	4g\	-mi-	4ryy	-mi-	4gg\	-mi-	.	.	.	.	.	.	.	.
4d\	-ni	4d\	-ni	4dd\	-ni	4ff\	-ni	.	.	.	.	.	.	.	.
=18-	=18-	=18-	=18-	=18-	=18-	=18-	=18-	=18-	=18-	=18-	=18-	=18-	=18-	=18-	=18-
!	!	!	!	!LO:TX:a:t=P:problem=# above	!	!	!	!	!	!	!	!	!	!	!
2.A/	Do-	2.e\	Do-	4cc#X\	Do-	2.ee\	Do-	.	.	.	.	.	.	.	.
.	.	.	.	2dd\	.	.	.	.	.	.	.	.	.	.	.
4A/	-mi-	4e\	-mi-	4cc#\	-mi-	4ee\	-mi-	.	.	.	.	.	.	.	.
=19-	=19-	=19-	=19-	=19-	=19-	=19-	=19-	=19-	=19-	=19-	=19-	=19-	=19-	=19-	=19-
*	*	*	*	*	*	*	*	*	*	*	*	*	*	*custos:ff	*
!	!	!	!	!	!	!LO:TX:a:t=P:problem=# above	!	!	!	!	!	!	!	!	!
1D	-no	1d	-no	1dd	-no	1ff#X	-no	2r	.	2r	.	2r	.	2r	.
!	!	!	!	!	!	!	!	!	!	!	!	!	!	!LO:LB:g=original	!
.	.	.	.	.	.	.	.	2d\	Lau-	2f\	Lau-	2dd\	Lau-	2ff\	Lau-
=20-	=20-	=20-	=20-	=20-	=20-	=20-	=20-	=20-	=20-	=20-	=20-	=20-	=20-	=20-	=20-
*	*	*	*	*	*	*	*	*	*	*custos:f	*	*	*	*	*
2r	.	2r	.	2r	.	2r	.	2G/	-da-	2d\	-da-	2dd\	-da-	2gg\	-da-
*	*	*	*	*	*	*	*	*	*	*	*	*custos:dd	*	*	*
!	!	!LO:SIC:v:s=2f#\	!	!	!	!LO:SIC:v:s=2ff#\	!	!	!	!LO:SIC:v:s=2f#\	!	!	!	!LO:TX:a:t=P:problem=# above	!
!	!	!	!	!	!	!	!	!	!	!LO:LB:g=original	!	!	!	!	!
2d\	Lau-	2f\	Lau-	2dd\	Lau-	2ffny\	Lau-	2d\	-te	2f\	-te	2dd\	-te	2ff#X\	-te
=21-	=21-	=21-	=21-	=21-	=21-	=21-	=21-	=21-	=21-	=21-	=21-	=21-	=21-	=21-	=21-
*custos:d	*	*custos:f#	*	*custos:dd	*	*	*	*	*	*	*	*	*	*	*
!	!	!	!	!	!	!	!	!	!	!	!	!LO:LB:g=original	!	!	!
2G/	-da-	2d\	-da-	2dd\	-da-	2gg\	-da-	2r	.	2r	.	2r	.	2r	.
*	*	*	*	*	*	*custos:ff	*	*	*	*	*	*	*	*	*
!	!	!LO:PB:g=original	!	!	!	!LO:SIC:v:s=2ff#\	!	!	!	!	!	!	!	!	!
!LO:LB:g=original	!	!LO:TX:a:t=P:problem=# above	!	!LO:LB:g=original	!	!	!	!	!	!LO:SIC:v:s=2f#	!	!	!	!LO:SIC:v:s=2ff#\	!
2d\	-te	2f#X\	-te	2dd\	-te	2ff\	-te	2d\	et	2f\	et	2dd\	et	2ffny\	et
=22-	=22-	=22-	=22-	=22-	=22-	=22-	=22-	=22-	=22-	=22-	=22-	=22-	=22-	=22-	=22-
!	!	!	!	!	!	!LO:LB:g=original	!	!	!	!	!	!	!	!	!
0r	.	0r	.	0r	.	0r	.	4.c\	ſu-	4.e\	ſu-	4ee\	ſu-	4.gg\	ſu-
.	.	.	.	.	.	.	.	.	.	.	.	4ee\	-per-	.	.
.	.	.	.	.	.	.	.	8Bny\	-per-	8e\	-per-	.	.	8gg\	-per-
.	.	.	.	.	.	.	.	4f\	-e-	4a\	-e-	4ff\	-e-	4aa\	-e-
.	.	.	.	.	.	.	.	4d\	-xal-	4a\	-xal-	4ff\	-xal-	4aa\	-xal-
=23-	=23-	=23-	=23-	=23-	=23-	=23-	=23-	=23-	=23-	=23-	=23-	=23-	=23-	=23-	=23-
.	.	.	.	.	.	.	.	2e\	-ta-	2e\	-ta-	2ee\	-ta-	2gg\	-ta-
.	.	.	.	.	.	.	.	4A/	-te	4e\	-te	4ee\	-te	4aa\	-te
.	.	.	.	.	.	.	.	4d\	e-	4f\	e-	4dd\	e-	4ff\	e-
=24-	=24-	=24-	=24-	=24-	=24-	=24-	=24-	=24-	=24-	=24-	=24-	=24-	=24-	=24-	=24-
1r	.	1r	.	1r	.	1r	.	4G/	-um	4d\	-um	4dd\	-um	4gg\	-um
.	.	.	.	.	.	.	.	4d\	in	4d\	in	4dd\	in	4ff\	in
.	.	.	.	.	.	.	.	4G/	ſae-	4e\	ſae-	4dd\	ſae-	4gg\	ſae-
!	!	!	!	!	!	!	!	!	!	!	!	!LO:TX:a:t=P:problem=# above	!	!	!
.	.	.	.	.	.	.	.	4A/	-cu-	4e\	-cu-	4cc#X\	-cu-	4ee\	-cu-
=25-	=25-	=25-	=25-	=25-	=25-	=25-	=25-	=25-	=25-	=25-	=25-	=25-	=25-	=25-	=25-
!	!	!	!	!	!	!	!	!	!	!	!	!	!	!LO:TX:b:t=P:problem=# below	!
2r	.	2r	.	2r	.	2r	.	1D 1d	-la	1d	-la	1dd	-la	1ff#X	-la
2d\	Lau-	2fny\	Lau-	2dd\	Lau-	2ff\	Lau-	.	.	.	.	.	.	.	.
=26-	=26-	=26-	=26-	=26-	=26-	=26-	=26-	=26-	=26-	=26-	=26-	=26-	=26-	=26-	=26-
2G/	-da-	2d\	-da-	2dd\	-da-	2gg\	-da-	2r	.	2r	.	2r	.	2r	.
!	!	!LO:TX:a:t=P:problem=# above	!	!	!	!LO:SIC:v:s=2ff#\	!	!	!	!LO:SIC:v:s=2f#\	!	!	!	!LO:SIC:v:s=2ff#\	!
2d\	-te	2f#X\	-te	2dd\	-te	2ff\	-te	2d\	Lau-	2f\	Lau-	2dd\	Lau-	2ffny\	Lau-
=27-	=27-	=27-	=27-	=27-	=27-	=27-	=27-	=27-	=27-	=27-	=27-	=27-	=27-	=27-	=27-
2r	.	2r	.	2r	.	2r	.	2G/	-da-	2d\	-da-	2dd\	-da-	2gg\	-da-
!	!	!	!	!	!	!	!	!	!	!LO:SIC:v:s=2f#\	!	!	!	!LO:SIC:v:s=2ff#\	!
2d\	et	2fny\	et	2dd\	et	2ff\	et	2d\	-te	2f\	-te	2dd\	-te	2ff\	-te
=28-	=28-	=28-	=28-	=28-	=28-	=28-	=28-	=28-	=28-	=28-	=28-	=28-	=28-	=28-	=28-
4.c\	su-	4.e\	ſu-	4ee\	ſu-	4gg\	su-	0r	.	0r	.	0r	.	0r	.
.	.	.	.	4ee\	-per	4gg\	-per-	.	.	.	.	.	.	.	.
8c\	-per-	8e\	-per	.	.	.	.	.	.	.	.	.	.	.	.
4f\	-e-	4a\	e-	4ff\	e-	4aa\	-e-	.	.	.	.	.	.	.	.
4d\	-xal-	4a\	-xal-	4ff\	-xal-	4aa\	-xal-	.	.	.	.	.	.	.	.
=29-	=29-	=29-	=29-	=29-	=29-	=29-	=29-	=29-	=29-	=29-	=29-	=29-	=29-	=29-	=29-
2e\	-ta-	2e\	-ta-	2ee\	-ta-	2gg\	-ta-	.	.	.	.	.	.	.	.
4A/	-te	4e\	-te	4ee\	-te	4aa\	-te	.	.	.	.	.	.	.	.
4d\	e-	4f\	e-	4dd\	e-	4ff\	e-	.	.	.	.	.	.	.	.
=30-	=30-	=30-	=30-	=30-	=30-	=30-	=30-	=30-	=30-	=30-	=30-	=30-	=30-	=30-	=30-
4G/	-um	4d\	-um	4dd\	-um	4gg\	-um	1r	.	1r	.	1r	.	1r	.
4d\	in	4d\	in	4dd\	in	4ff\	in	.	.	.	.	.	.	.	.
4G/	sae-	4e\	ſae-	4dd\	ſae-	4gg\	ſae-	.	.	.	.	.	.	.	.
!	!	!	!	!LO:TX:a:t=P:problem=# above	!	!	!	!	!	!	!	!	!	!	!
4A/	-cu-	4e\	-cu-	4cc#X\	-cu-	4ee\	-cu-	.	.	.	.	.	.	.	.
=31-	=31-	=31-	=31-	=31-	=31-	=31-	=31-	=31-	=31-	=31-	=31-	=31-	=31-	=31-	=31-
2D/	-la,	2d\	-la	2dd,<\	-la,	2ff\	-la,	2r	.	2r	.	2r	.	2r	.
2d\	et	2d\	et	2dd\	et	2aa\	et	2d\	et	2f\	et	2dd\	et	2ff\	et
=32-	=32-	=32-	=32-	=32-	=32-	=32-	=32-	=32-	=32-	=32-	=32-	=32-	=32-	=32-	=32-
4.G/	ſu-	4d\	ſu-	4dd\	ſu-	4gg\	ſu-	4.G/	ſu-	4.d\	ſu-	4.dd\	ſu-	4gg\	ſu-
.	.	4d\	-per	4dd\	-per	4dd\	-per	.	.	.	.	.	.	4gg\	-per
8G/	-per	.	.	.	.	.	.	8G/	-per	8g\	-per	8dd\	-per	.	.
4d\	e-	4r	.	4r	.	4r	.	4d\	e-	4f\	e-	4dd\	e-	4aa\	e-
*	*	*	*	*	*	*	*	*custos:E	*	*	*	*	*	*	*
4A/	-xal-	8e\	e-	8ccny\	e-	8ee\	e-	4A/	-xal-	4e\	-xal-	4ee\	-xal-	4aa\	-xal-
.	.	8e\	-xal-	8dd\	-xal-	8ee\	-xal-	.	.	.	.	.	.	.	.
=33-	=33-	=33-	=33-	=33-	=33-	=33-	=33-	=33-	=33-	=33-	=33-	=33-	=33-	=33-	=33-
!	!	!	!	!	!	!	!	!LO:LB:g=original	!	!	!	!	!	!	!
2e\	-ta-	4e\	-ta-	2ee\	-ta-	4ee\	-ta-	2E/	-ta-	2e\	-ta-	2ee\	-ta-	2gg\	-ta-
.	.	4e\	-te	.	.	4ee\	-te	.	.	.	.	.	.	.	.
4A/	-te	4r	.	4cc\	-te	4r	.	4A/	-te	4e\	-te	4ee\	-te	4aa\	-te
*custos:G	*	*	*	*	*	*	*	*	*	*	*	*	*	*custos:gg	*
4d\	e-	(4c\	e-	4r	.	4ff\	e-	4d\	e-	4d\	e-	4ff\	e-	4aa\	e-
=34-	=34-	=34-	=34-	=34-	=34-	=34-	=34-	=34-	=34-	=34-	=34-	=34-	=34-	=34-	=34-
*	*	*custos:d	*	*	*	*	*	*	*	*	*	*	*	*	*
!LO:LB:g=original	!	!	!	!	!	!	!	!	!	!	!	!	!	!LO:LB:g=original	!
4G/	-um	2d\)	.	4dd\	e-	4gg\	-um	4G/	-um	8d\L	-um	4dd\	-um	4gg\	-um
.	.	.	.	.	.	.	.	.	.	8e\	.	.	.	.	.
4d\	in	.	.	8dd\	-um	4aa\	in	4d\	in	8f\	in	4dd\	in	4ff\	in
*	*	*	*	*custos:cc#	*	*	*	*	*	*custos:a	*	*	*	*	*
.	.	.	.	8dd\	in	.	.	.	.	8g\J	.	.	.	.	.
!	!	!	!	!LO:TX:a:t=P:problem=# above	!	!	!	!	!	!LO:LB:g=original	!	!LO:SIC:v:s=4.cc#\	!	!	!
!	!	!LO:LB:g=original	!	!LO:LB:g=original	!	!	!	!	!	!	!	!	!	!	!
4.A/	ſae-	4d\	-um	4.cc#X\	ſae-	4.aa\	ſae-	4.A/	ſae-	4.a\	ſae-	4.ccny\	ſae-	4.ee\	ſae-
.	.	4A/	in	.	.	.	.	.	.	.	.	.	.	.	.
*	*	*	*	*	*	*custos:aa	*	*	*	*	*	*	*	*	*
!	!	!	!	!LO:TX:a:t=P:problem=# above	!	!	!	!	!	!	!	!LO:SIC:v:s=8cc#\	!	!	!
8A/	-cu-	.	.	8cc#X\	-cu-	8aa\	-cu-	8A/	-cu-	8a\	-cu-	8ccny\	-cu-	8ee\	-cu-
=35-	=35-	=35-	=35-	=35-	=35-	=35-	=35-	=35-	=35-	=35-	=35-	=35-	=35-	=35-	=35-
*	*	*	*	*	*	*	*	*	*	*	*	*custos:dd	*	*	*
!	!	!	!	!	!	!LO:LB:g=original	!	!	!	!LO:TX:b:t=P:problem=# below	!	!	!	!LO:SIC:v:s=1ff#	!
1D	-la	4A/	ſae-	1dd	-la	1aa	-la	1D 1d	-la	1f#X	-la	1dd	-la	1ff,<	-la
.	.	4d\	-cu-	.	.	.	.	.	.	.	.	.	.	.	.
.	.	2d\	-la	.	.	.	.	.	.	.	.	.	.	.	.
=36-	=36-	=36-	=36-	=36-	=36-	=36-	=36-	=36-	=36-	=36-	=36-	=36-	=36-	=36-	=36-
!	!	!	!	!	!	!	!	!	!	!	!	!LO:LB:g=original	!	!	!
00r	.	00r	.	00r	.	00r	.	4d\	Be-	4fny\	Be-	4dd\	Be-	4ff\	Be-
.	.	.	.	.	.	.	.	4A/	-ne-	4a\	-ne-	4cc\	-ne-	4ee\	-ne-
.	.	.	.	.	.	.	.	4.d\	-di-	4.d\	-di-	4.dd\	-di-	4.ff\	-di-
.	.	.	.	.	.	.	.	8d\	-ci-	8a\	-ci-	8ee\	-ci-	8gg\	-ci-
=37-	=37-	=37-	=37-	=37-	=37-	=37-	=37-	=37-	=37-	=37-	=37-	=37-	=37-	=37-	=37-
.	.	.	.	.	.	.	.	2F/	-te	2f,<\	-te,	2ff,<\	-te,	2aa\	-te
*	*	*	*	*	*	*	*	*	*	*	*ij	*	*ij	*	*
.	.	.	.	.	.	.	.	4f\	be-	4a\	Be-	4ff\	Be-	4aa\	be-
.	.	.	.	.	.	.	.	4c\	-ne-	4e\	-ne-	4ee\	-ne-	4gg\	-ne-
=38-	=38-	=38-	=38-	=38-	=38-	=38-	=38-	=38-	=38-	=38-	=38-	=38-	=38-	=38-	=38-
.	.	.	.	.	.	.	.	4.d\	-di-	4.f\	-di-	4.dd\	-di-	4.ff\	-di-
.	.	.	.	.	.	.	.	8d\	-ci-	8d\	-ci-	8dd\	-ci-	8ff\	-ci-
.	.	.	.	.	.	.	.	2A/	-te	2e\	-te	2cc\	-te	2ee,<\	-te,
*	*	*	*	*	*	*	*	*	*	*	*Xij	*	*Xij	*	*
=39-	=39-	=39-	=39-	=39-	=39-	=39-	=39-	=39-	=39-	=39-	=39-	=39-	=39-	=39-	=39-
.	.	.	.	.	.	.	.	2F/	An-	2f\	An-	2ff\	An-	2aa\	An-
.	.	.	.	.	.	.	.	4F/	-ge-	4f\	-ge-	4ff\	-ge-	4aa\	-ge-
.	.	.	.	.	.	.	.	4F/	-li	4f\	-li	4ff\	-li	4aa\	-li
=40-	=40-	=40-	=40-	=40-	=40-	=40-	=40-	=40-	=40-	=40-	=40-	=40-	=40-	=40-	=40-
0r	.	0r	.	0r	.	0r	.	2B-X\	Do-	2f\	Do-	2dd\	Do-	2ff\	Do-
.	.	.	.	.	.	.	.	4B-\	-mi-	4f\	-mi-	4cc\	-mi-	4ff\	-mi-
.	.	.	.	.	.	.	.	4F/	-ni	4f\	-ni	4ff\	-ni	4aa\	-ni
=41-	=41-	=41-	=41-	=41-	=41-	=41-	=41-	=41-	=41-	=41-	=41-	=41-	=41-	=41-	=41-
.	.	.	.	.	.	.	.	2.c\	Do-	2.g\	Do-	4ee\	Do-	2.gg\	Do-
.	.	.	.	.	.	.	.	.	.	.	.	2ff\	.	.	.
.	.	.	.	.	.	.	.	4c\	-mi-	4g\	-mi-	4ee\	-mi-	4gg\	-mi-
=42-	=42-	=42-	=42-	=42-	=42-	=42-	=42-	=42-	=42-	=42-	=42-	=42-	=42-	=42-	=42-
1r	.	1r	.	1r	.	1r	.	1F	-no	1f	-no	1ff	-no.	1aa	-no.
=43-	=43-	=43-	=43-	=43-	=43-	=43-	=43-	=43-	=43-	=43-	=43-	=43-	=43-	=43-	=43-
*	*	*	*	*	*	*	*	*custos:A	*	*	*	*	*	*	*
4f\	be-	4a\	be-	4ff\	be-	4aa\	be-	00r	.	00r	.	00r	.	00r	.
4c\	-ne-	4e\	-ne-	4ee\	-ne-	4gg\	-ne-	.	.	.	.	.	.	.	.
4.d\	-di-	4.f\	-di-	4.dd\	-di-	4.ff\	-di-	.	.	.	.	.	.	.	.
8d\	-ci-	8d\	-ci-	8dd\	-ci-	8ff\	-ci-	.	.	.	.	.	.	.	.
=44-	=44-	=44-	=44-	=44-	=44-	=44-	=44-	=44-	=44-	=44-	=44-	=44-	=44-	=44-	=44-
4A/	-te	4a\	-te	4ccny\	-te	4ee\	-te	.	.	.	.	.	.	.	.
2d\	cae-	2f\	cae-	2dd\	cae-	2ff\	cae-	.	.	.	.	.	.	.	.
4c\	-li	4e\	-li	4ee\	-li	4aa\	-li	.	.	.	.	.	.	.	.
=45-	=45-	=45-	=45-	=45-	=45-	=45-	=45-	=45-	=45-	=45-	=45-	=45-	=45-	=45-	=45-
2.e\	Do-	2.e\	Do-	2.ee\	Do-	4gg\	.	.	.	.	.	.	.	.	.
.	.	.	.	.	.	2aa\	Do-	.	.	.	.	.	.	.	.
4e\	-mi-	4e\	-mi-	4ee\	-mi-	4gg\	-mi-	.	.	.	.	.	.	.	.
=46-	=46-	=46-	=46-	=46-	=46-	=46-	=46-	=46-	=46-	=46-	=46-	=46-	=46-	=46-	=46-
1A	-no	1e	-no,	1ee	-no	1aa	-no	.	.	.	.	.	.	.	.
=47-	=47-	=47-	=47-	=47-	=47-	=47-	=47-	=47-	=47-	=47-	=47-	=47-	=47-	=47-	=47-
!	!	!	!	!	!	!	!	!LO:LB:g=original	!	!	!	!	!	!	!
00r	.	00r	.	00r	.	00r	.	4A/	Be-	4e\	Be-	4cc\	be-	4ee\	Be-
.	.	.	.	.	.	.	.	4d\	-ne-	4d\	-ne-	4dd\	-ne-	4ff\	-ne-
.	.	.	.	.	.	.	.	4.c\	-di-	4.g\	-di-	4.ee\	-di-	4.gg\	-di-
.	.	.	.	.	.	.	.	8c\	-ci-	8g\	-ci-	8ee\	-ci-	8gg\	-ci-
=48-	=48-	=48-	=48-	=48-	=48-	=48-	=48-	=48-	=48-	=48-	=48-	=48-	=48-	=48-	=48-
*	*	*	*	*	*	*	*	*	*	*custos:g	*	*	*	*custos:gg	*
.	.	.	.	.	.	.	.	2c\	-te	2g\	-te	2ee\	-te	2gg\	-te
!	!	!	!	!	!	!	!	!	!	!LO:LB:g=original	!	!	!	!LO:LB:g=original	!
.	.	.	.	.	.	.	.	4c\	ſa-	4g\	ſa-	4ee\	ſa-	4gg\	ſa-
.	.	.	.	.	.	.	.	4c\	-cer-	4e\	-cer-	4ee\	-cer-	4gg\	-cer-
=49-	=49-	=49-	=49-	=49-	=49-	=49-	=49-	=49-	=49-	=49-	=49-	=49-	=49-	=49-	=49-
.	.	.	.	.	.	.	.	2f\	-do-	2a\	-do-	2ff\	-do-	2aa\	-do-
*	*	*	*	*	*	*	*	*	*	*	*	*custos:dd	*	*	*
.	.	.	.	.	.	.	.	2c\	-tes	2e\	-tes	2ee\	-tes,	2gg\	-tes
=50-	=50-	=50-	=50-	=50-	=50-	=50-	=50-	=50-	=50-	=50-	=50-	=50-	=50-	=50-	=50-
!	!	!	!	!	!	!	!	!	!	!	!	!LO:PB:g=original	!	!	!
.	.	.	.	.	.	.	.	4d\	Do-	4f\	Do-	4dd\	Do-	4ff\	Do-
.	.	.	.	.	.	.	.	8d\	-mi-	8f\L	-mi-	8cc\	-mi-	8ff\L	-mi-
.	.	.	.	.	.	.	.	8A/	-ni	8a\J	-ni	8b/	-ni	8ee\J	-ni
.	.	.	.	.	.	.	.	4.e\	Do-	4.e\	Do-	4.b/	Do-	4.ee\	Do-
.	.	.	.	.	.	.	.	8e\	-mi-	8e\	-mi-	8b/	-mi-	8ee\	-mi-
=51-	=51-	=51-	=51-	=51-	=51-	=51-	=51-	=51-	=51-	=51-	=51-	=51-	=51-	=51-	=51-
1r	.	1r	.	1r	.	1r	.	1A	-no	1e	-no	1cc	-no	1ee	-no.
=52-	=52-	=52-	=52-	=52-	=52-	=52-	=52-	=52-	=52-	=52-	=52-	=52-	=52-	=52-	=52-
4A/	be-	4e\	be-	4cc\	Be-	4ee\	be-	00r	.	00r	.	00r	.	00r	.
4d\	-ne-	4d\	-ne-	4dd\	-ne-	4ff\	-ne-	.	.	.	.	.	.	.	.
4.c\	-di-	4.g\	-di-	4.ee\	-di-	4.gg\	-di-	.	.	.	.	.	.	.	.
8c\	-ci-	8g\	-ci-	8ee\	-ci-	8gg\	-ci-	.	.	.	.	.	.	.	.
=53-	=53-	=53-	=53-	=53-	=53-	=53-	=53-	=53-	=53-	=53-	=53-	=53-	=53-	=53-	=53-
4c\	-te	4g\	-te	4ee\	-te	4gg\	-te	.	.	.	.	.	.	.	.
2f\	ſer-	2f\	ſer-	2ff\	ſer-	2aa\	ſer-	.	.	.	.	.	.	.	.
4c\	-vi	4g\	-vi	4ee\	-vi	4gg\	-vi	.	.	.	.	.	.	.	.
=54-	=54-	=54-	=54-	=54-	=54-	=54-	=54-	=54-	=54-	=54-	=54-	=54-	=54-	=54-	=54-
4d\	do-	4d\	Do-	4dd\	Do-	4ff\	Do-	.	.	.	.	.	.	.	.
8d\	-mi-	8d\	-mi-	8dd\	-mi-	8ff\	-mi-	.	.	.	.	.	.	.	.
*custos:A	*	*	*	*	*	*	*	*	*	*	*	*	*	*	*
8d\	-ni	8d\	-ni	8dd\	-ni	8ff\	-ni	.	.	.	.	.	.	.	.
!LO:LB:g=original	!	!	!	!	!	!	!	!	!	!	!	!	!	!	!
4.A/	do-	4e\	Do-	4dd\	D(o-	4gg\	Do-	.	.	.	.	.	.	.	.
!	!	!	!	!LO:TX:a:t=P:problem=# above	!	!	!	!	!	!	!	!	!	!	!
.	.	4e\	-mi-	4cc#X\	-mi)-	4ee\	-mi-	.	.	.	.	.	.	.	.
8A/	-mi-	.	.	.	.	.	.	.	.	.	.	.	.	.	.
=55-	=55-	=55-	=55-	=55-	=55-	=55-	=55-	=55-	=55-	=55-	=55-	=55-	=55-	=55-	=55-
*	*	*custos:e	*	*	*	*	*	*	*	*	*	*	*	*	*
!	!	!	!	!	!	!LO:TX:b:t=P:problem=# below	!	!	!	!	!	!	!	!	!
1D	-no	1d	-no	1dd	-no	1ff#X	-no	.	.	.	.	.	.	.	.
=56-	=56-	=56-	=56-	=56-	=56-	=56-	=56-	=56-	=56-	=56-	=56-	=56-	=56-	=56-	=56-
!	!	!LO:LB:g=original	!	!	!	!	!	!	!	!	!	!	!	!	!
4A/	be-	4e\	be-	4ccny\	Be-	4aa\	Be-	4A/	Be-	4e\	Be-	4cc\	Be-	4aa\	Be-
*	*	*	*	*custos:cc	*	*custos:aa	*	*	*	*	*	*	*	*	*
4D/	-ne-	4f\	-ne-	4a/	-ne-	4aa\	-ne	4d\	-ne-	4d\	-ne-	4dd\	-ne-	4ff\	-ne-
!	!	!	!	!LO:LB:g=original	!	!LO:LB:g=original	!	!	!	!	!	!	!	!	!
4.A/	-di-	4.c/	-di-	4.cc\	-di-	4.aa\	di-	4.A/	-di-	4.e\	-di-	4.cc\	-di-	4.ee\	-di-
8A/	-ci-	8c/	-ci-	8cc\	-ci-	8aa\	-ci-	8A/	-ci-	8e\	-ci-	8cc\	-ci-	8ee\	-ci-
=57-	=57-	=57-	=57-	=57-	=57-	=57-	=57-	=57-	=57-	=57-	=57-	=57-	=57-	=57-	=57-
4A/	-te	4c/	-te	4ee\	-te	4aa\	-te	4A/	-te	4a\	-te	4cc\	-te	4ee\	-te
2D/	ſer-	4f\	ſer-	2dd\	ser-	4aa\	ſer-	2d\	ſer-	2f\	ſer-	2dd\	ſer-	2ff\	ſer-
.	.	2d\	-vi	.	.	4aa\	-vi	.	.	.	.	.	.	.	.
4G/	-vi	.	.	4dd\	-vi	4gg\	D(o-	4G/	-vi,	4d\	-vi	4dd\	-vi	4gg\	-vi
=58-	=58-	=58-	=58-	=58-	=58-	=58-	=58-	=58-	=58-	=58-	=58-	=58-	=58-	=58-	=58-
4D/	Do-	8r	.	8r	.	4ffny\	-mi)-	4d\	Do-	4d\	Do-	4ff\	Do-	4aa\	D(o-
.	.	8A/	Do-	8a/	Do-	.	.	.	.	.	.	.	.	.	.
8D/	-mi-	8A/	-mi-	8a/	-mi-	4aa\	-ni	8d\	-mi-	8c\L	-mi-	8ff\L	-mi-	8aa\L	-mi)-
!	!	!LO:TX:t=P:problem=zły rytm	!	!	!	!	!	!	!	!	!	!	!	!	!
!	!	!LO:N:vis=4	!	!	!	!	!	!	!	!	!	!	!	!	!
8A/	-ni	8c/	-ni	8a/	-ni	.	.	8A/	-ni	8e\J	-ni	8ee\J	-ni	8aa\J	-ni
4.E/	Do-	4.e\	Do-	4.b/	Do-	4r	.	4.e\	Do-	4.e\	Do-	4.ee\	Do-	4.gg\	D(o-
.	.	.	.	.	.	8ee\	Do-	.	.	.	.	.	.	.	.
8E/	-mi-	8e\	-mi-	8b/	-mi-	8ee\	-mi-	8e\	-mi-	8e\	-mi-	8ee\	-mi-	8gg\	-mi)-
=59-	=59-	=59-	=59-	=59-	=59-	=59-	=59-	=59-	=59-	=59-	=59-	=59-	=59-	=59-	=59-
*	*	*	*	*	*	*	*	*custos:d	*	*	*	*	*	*	*
1A	-no	1e	-no	1a	-no	1ee	-no,	1A	-no	1e	-no	1ee	-no	1aa	-no
=60-	=60-	=60-	=60-	=60-	=60-	=60-	=60-	=60-	=60-	=60-	=60-	=60-	=60-	=60-	=60-
!	!	!	!	!	!	!	!	!LO:LB:g=original	!	!	!	!	!	!LO:TX:t=P:problem=litera B.color=red	!
1r	.	1r	.	1r	.	1r	.	4d\	Be-	4a\	Be-	4aa\	Be-	4ff\	Be-
.	.	.	.	.	.	.	.	8d\	-ne-	8a\	-ne-	8aa\L	-ne-	8ff\L	-ne-
.	.	.	.	.	.	.	.	8d\	-di-	8a\	-di-	8ff\J	-di-	8gg\J	-di-
.	.	.	.	.	.	.	.	4d\	-ca-	4a\	-ca-	4dd\	-ca-	4ff\	-ca-
*	*	*	*	*	*	*	*	*	*	*custos:f	*	*	*	*	*
.	.	.	.	.	.	.	.	4d\	-mus	4f\	-mus	4dd\	-mus	4ff\	-mus
=61-	=61-	=61-	=61-	=61-	=61-	=61-	=61-	=61-	=61-	=61-	=61-	=61-	=61-	=61-	=61-
!	!	!LO:SIC:v:s=4f#\	!	!	!	!LO:SIC:v:s=4ff#\	!	!	!	!LO:SIC:v:s=2f#\	!	!LO:TX:b:t=P:problem=# below	!	!	!
!	!	!	!	!	!	!	!	!	!	!LO:LB:g=original	!	!	!	!	!
4d\	Be-	4f\	Be-	4dd\	Be-	4ff\	Be-	2d\	Pa-	2f\	Pa-	2ff#X\	Pa-	2dd\	Pa-
!	!	!LO:SIC:v:s=8f#\	!	!	!	!LO:SIC:v:s=8tff#\	!	!	!	!	!	!	!	!	!
8d\	-ne-	8f\	-ne-	8dd\	-ne-	8ff\	-ne-	.	.	.	.	.	.	.	.
!	!	!LO:SIC:v:s=8f#\	!	!LO:SIC:v:s=8ff#	!	!	!	!	!	!	!	!	!	!	!
8d\	-di-	8f\	-di-	8ff\	-di-	8aa\	-di-	.	.	.	.	.	.	.	.
!	!	!LO:SIC:v:s=4f#\	!	!	!	!LO:SIC:v:s=4ff#\	!	!	!	!	!	!	!	!	!
4d\	-ca-	4f\	-ca-	4dd\	-ca-	4ff\	-ca-	2d\	-trem	2d\	-trem	2ff#\	-trem	2a/	-trem
!	!	!LO:SIC:v:s=4f#\	!	!	!	!LO:SIC:v:s=4ff#\	!	!	!	!	!	!	!	!	!
4d\	-mus	4f\	-mus	4dd\	-mus	4ff\	-mus	.	.	.	.	.	.	.	.
=62-	=62-	=62-	=62-	=62-	=62-	=62-	=62-	=62-	=62-	=62-	=62-	=62-	=62-	=62-	=62-
*	*	*	*	*	*	*	*	*	*ij	*	*	*	*	*	*
*	*	*	*	*	*	*	*	*	*	*	*	*	*	*custos:ff	*
2d\	Pa-	2f\	Pa-	2dd\	Pa-	2ff\	Pa-	4d\	Be-	4a\	Be-	4aa\	Be-	4ff\	Be-
!	!	!	!	!	!	!	!	!	!	!	!	!	!	!LO:LB:g=original	!
.	.	.	.	.	.	.	.	8d\	-ne-	8a\	-ne-	8aa\L	-ne-	8ff\L	-ne-
*	*	*	*	*	*	*	*	*	*	*	*	*custos:dd	*	*	*
.	.	.	.	.	.	.	.	8d\	-di-	8a\	-di-	8ffny\J	-di-	8aa\J	-di-
!	!	!	!	!	!	!	!	!	!	!	!	!LO:LB:g=original	!	!	!
2D/	-trem	2d\	-trem	2ff,<\	-trem,	2aa\	-trem,	4d\	-ca-	4a\	-ca-	4dd\	-ca-	4ff\	-ca-
.	.	.	.	.	.	.	.	4d\	-mus	4f\	-mus	4dd\	-mus	4ff\	-mus
=63-	=63-	=63-	=63-	=63-	=63-	=63-	=63-	=63-	=63-	=63-	=63-	=63-	=63-	=63-	=63-
*	*	*	*ij	*	*ij	*	*ij	*	*	*	*	*	*	*	*
!	!	!LO:SIC:v:s=4f#\	!	!	!	!LO:SIC:v:s=4ff#\	!	!	!	!LO:SIC:v:s=2f#\	!	!LO:TX:b:t=P:problem=# below	!	!	!
4d\	Be-	4f\	Be-	4dd\	Be-	4ff\	Be-	2d\	Pa-	2f\	Pa-	2ff#X\	Pa-	2dd\	Pa-
!	!	!LO:SIC:v:s=8f#\	!	!	!	!LO:SIC:v:s=4ff#\	!	!	!	!	!	!	!	!	!
8d\	-ne-	8f\	-ne-	8dd\	-ne-	8ff\	-ne-	.	.	.	.	.	.	.	.
!	!	!LO:SIC:v:s=8f#\	!	!LO:SIC:v:s=4ff#	!	!	!	!	!	!	!	!	!	!	!
8d\	-di-	8f\	-di-	8ff\	-di-	8aa\	-di-	.	.	.	.	.	.	.	.
!	!	!LO:SIC:v:s=4f#\	!	!	!	!LO:SIC:v:s=4ff#\	!	!	!	!	!	!	!	!	!
4d\	-ca-	4f\	-ca-	4dd\	-ca-	4ff\	-ca-	2D\ 2d	-trem	2d\	-trem	2ff#\	-trem	2a/	-trem
*	*	*	*	*	*	*	*	*	*Xij	*	*	*	*	*	*
*custos:d	*	*	*	*	*	*	*	*	*	*	*	*	*	*	*
!	!	!LO:SIC:v:s=4f#\	!	!	!	!LO:SIC:v:s=4ff#\	!	!	!	!	!	!	!	!	!
4d\	-m(us)	4f\	-mus	4dd\	-mus	4ff\	-mus	.	.	.	.	.	.	.	.
=64-	=64-	=64-	=64-	=64-	=64-	=64-	=64-	=64-	=64-	=64-	=64-	=64-	=64-	=64-	=64-
!LO:LB:g=original	!	!	!	!	!	!	!	!	!	!	!	!	!	!	!
2d\	Pa-	2f\	Pa-	2dd\	Pa-	2ff\	Pa-	2r	.	2r	.	2r	.	2r	.
4D/	-trem	2d\	-trem	4ff\	-trem	4ff\	-trem	2d\	et	2a\	et	2ffny\	et	2aa\	et
*	*	*	*Xij	*	*Xij	*	*Xij	*	*	*	*	*	*	*	*
4D/	et	.	.	4dd\	et	4ff\	et	.	.	.	.	.	.	.	.
=65-	=65-	=65-	=65-	=65-	=65-	=65-	=65-	=65-	=65-	=65-	=65-	=65-	=65-	=65-	=65-
2.A/	Fi-	4r	.	2.ee\	Fi-	2.aa\	Fi-	2.A/	Fi-	2.a\	Fi-	2.ee\	Fi-	2.aa\	Fi-
*	*	*custos:A	*	*	*	*	*	*	*	*	*	*	*	*	*
.	.	4e\	et	.	.	.	.	.	.	.	.	.	.	.	.
!	!	!LO:LB:g=original	!	!	!	!	!	!	!	!	!	!	!	!	!
.	.	4.A/	Fi-	.	.	.	.	.	.	.	.	.	.	.	.
*	*	*	*	*custos:dd	*	*	*	*	*	*	*	*	*	*	*
4A/	-li-	.	.	4ee\	-li-	4aa\	-li-	4A/	-li-	4a\	-li-	4aa\	-li-	4ee\	-li-
.	.	8A/	-li-	.	.	.	.	.	.	.	.	.	.	.	.
=66-	=66-	=66-	=66-	=66-	=66-	=66-	=66-	=66-	=66-	=66-	=66-	=66-	=66-	=66-	=66-
!	!	!	!	!LO:LB:g=original	!	!	!	!	!	!LO:TX:b:t=P:problem=# below	!	!	!	!LO:TX:a:t=P:problem=# above	!
1D	-um	1d	-um	1dd	-um	1aa	-um	1d,<	-um	1f#X	-um	1aa	-um	1ff#X	-um
=67-	=67-	=67-	=67-	=67-	=67-	=67-	=67-	=67-	=67-	=67-	=67-	=67-	=67-	=67-	=67-
*	*	*	*	*	*	*custos:ff	*	*	*	*	*	*	*	*	*
1r	.	1r	.	1r	.	1r	.	4d\	Be-	4a\	Be-	4ff\	Be-	4aa\	Be-
.	.	.	.	.	.	.	.	8d\	-ne-	8a\	-ne-	8ff\L	-ne-	8aa\L	-ne-
.	.	.	.	.	.	.	.	8d\	-di-	8a\	-di-	8aa\J	-di-	8ffny\J	-di-
.	.	.	.	.	.	.	.	4d\	-ca-	4a\	-ca-	4ff\	-ca-	4dd\	-ca-
.	.	.	.	.	.	.	.	4d\	-mus	4fny\	-mus	4ff\	-m(us)	4dd\	-mus
=68-	=68-	=68-	=68-	=68-	=68-	=68-	=68-	=68-	=68-	=68-	=68-	=68-	=68-	=68-	=68-
!	!	!	!	!	!	!LO:LB:g=original	!	!	!	!	!	!	!	!	!
4d\	Be-	4f\	Be-	4dd\	Be-	4ff\	Be-	2d\	Pa-	2f\	Pa-	2dd\	Pa-	2ff\	Pa-
8d\	-ne-	8f\	-ne-	8dd\	-ne-	8ff\	-ne-	.	.	.	.	.	.	.	.
8d\	-di-	8f\	-di-	8ff\	-di-	8aa\	-di-	.	.	.	.	.	.	.	.
4d\	-ca-	4f\	-ca-	4dd\	-ca-	4ff\	-ca-	2d\	-trem,	2d,<\	-trem,	2a/	-trem	2ff\	-trem
4d\	-m(us)	4f\	-mus	4dd\	-mus	4ff\	-mus	.	.	.	.	.	.	.	.
=69-	=69-	=69-	=69-	=69-	=69-	=69-	=69-	=69-	=69-	=69-	=69-	=69-	=69-	=69-	=69-
*	*	*	*	*	*	*	*	*	*	*	*ij	*	*ij	*	*ij
2d\	Pa-	2f\	Pa-	2dd\	Pa-	2ff\	Pa-	4d\	Be-	4a\	Be-	4ff\	Be-	4gg\	Be-
.	.	.	.	.	.	.	.	8d\	-ne-	8a\	-ne-	8ff\L	-ne-	8gg\L	-ne-
.	.	.	.	.	.	.	.	8d\	-di-	8a\	-di-	8aa\J	-di-	8ff\J	-di-
2D/	-trem,	2d\	-trem,	2ff,<\	-trem,	2aa\	-trem	4d\	-ca-	4a\	-ca-	4ff\	-ca-	4dd\	-ca-
*	*	*	*	*	*	*	*	*custos:f	*	*	*	*	*	*	*
.	.	.	.	.	.	.	.	4d\	-mus	4f\	-mus	4ff\	-m(us)	4dd\	-mus
=70-	=70-	=70-	=70-	=70-	=70-	=70-	=70-	=70-	=70-	=70-	=70-	=70-	=70-	=70-	=70-
*	*ij	*	*	*	*ij	*	*ij	*	*	*	*	*	*	*	*
!	!	!LO:SIC:v:s=4f#\	!	!	!	!LO:SIC:v:s=4ff#\	!	!LO:LB:g=original	!	!LO:SIC:v:s=2f#\	!	!	!	!LO:TX:b:t=P:problem=# below	!
4d\	Be-	4f\	Be-	4dd\	Be-	4ff\	Be-	2d\	Pa-	2f\	Pa-	2dd\	Pa-	2ff#X\	Pa-
!	!	!LO:SIC:v:s=8f#\	!	!	!	!LO:SIC:v:s=8ff#\	!	!	!	!	!	!	!	!	!
8d\	-ne-	8f\	-ne-	8dd\	-ne-	8ff\	-ne-	.	.	.	.	.	.	.	.
!	!	!LO:SIC:v:s=8f#\	!	!LO:SIC:v:s=8ff#	!	!	!	!	!	!	!	!	!	!	!
8d\	-di-	8f\	-di-	8ff\	-di-	8aa\	-di-	.	.	.	.	.	.	.	.
*	*	*	*	*	*	*	*	*	*	*custos:f	*	*	*	*	*
!	!	!LO:SIC:v:s=4f#\	!	!	!	!LO:SIC:v:s=4ff#\	!	!	!	!	!	!	!	!	!
4d\	-ca-	4f\	-ca-	4dd\	-ca-	4ff\	-ca-	2D\ 2d	-trem	2d\	-trem	2a/	-trem	2ff#\	-trem
*	*	*	*	*	*	*	*	*	*	*	*Xij	*	*Xij	*	*Xij
!	!	!LO:SIC:v:s=4f#\	!	!	!	!LO:SIC:v:s=4ff#\	!	!	!	!	!	!	!	!	!
4d\	-m(us)	4f\	-mus	4dd\	-mus	4ff\	-mus	.	.	.	.	.	.	.	.
=71-	=71-	=71-	=71-	=71-	=71-	=71-	=71-	=71-	=71-	=71-	=71-	=71-	=71-	=71-	=71-
!	!	!	!	!	!	!	!	!	!	!LO:LB:g=original	!	!	!	!	!
2d\	Pa-	2f\	Pa-	2dd\	Pa-	2ff\	Pa-	2r	.	2r	.	2r	.	2r	.
4D/	-trem	2d\	-trem	4ff\	-trem	4ff\	-trem	2d\	et	2a\	et	2aa\	et	2ffny\	et
*	*Xij	*	*	*	*Xij	*	*Xij	*	*	*	*	*	*	*	*
4D/	et	.	.	4dd\	et	4ff\	et	.	.	.	.	.	.	.	.
=72-	=72-	=72-	=72-	=72-	=72-	=72-	=72-	=72-	=72-	=72-	=72-	=72-	=72-	=72-	=72-
2.A/	Fi-	4r	.	2.ee\	Fi-	2.aa\	Fi-	2.A/	Fi-	2.a\	Fi-	2.aa\	Fi-	2.ee\	Fi-
.	.	4e\	et	.	.	.	.	.	.	.	.	.	.	.	.
.	.	4.A/	Fi-	.	.	.	.	.	.	.	.	.	.	.	.
4A/	-li-	.	.	4ee\	-li-	4aa\	-li-	4A/	-li-	4a\	-li-	4ee\	-li-	4aa\	-li-
.	.	8A/	-li-	.	.	.	.	.	.	.	.	.	.	.	.
=73-	=73-	=73-	=73-	=73-	=73-	=73-	=73-	=73-	=73-	=73-	=73-	=73-	=73-	=73-	=73-
*	*	*	*	*	*	*	*	*	*	*	*	*	*	*custos:ff	*
1D	-um	1d	-um	1dd	-um	1aa	-um	2d\	-um	2f\	-um	2ff\	-um	2aa\	-um
!	!	!	!	!	!	!	!	!	!	!	!	!	!	!LO:LB:g=original	!
.	.	.	.	.	.	.	.	4r	.	4r	.	4r	.	4r	.
*	*	*	*	*	*	*	*	*	*	*	*	*custos:ee	*	*	*
.	.	.	.	.	.	.	.	4d\	cum	4f\	Cum	4dd\	cum	4ff\	cum
=74-	=74-	=74-	=74-	=74-	=74-	=74-	=74-	=74-	=74-	=74-	=74-	=74-	=74-	=74-	=74-
!	!	!	!	!	!	!	!	!	!	!	!	!LO:LB:g=original	!	!	!
1r	.	1r	.	1r	.	1r	.	4c\	ſan-	4e\	ſan-	4ee\	ſan-	4gg\	ſan-
.	.	.	.	.	.	.	.	4A/	-cto	4a\	-cto	4ee\	-cto	4aa\	-cto
.	.	.	.	.	.	.	.	4.e\	spi-	4.e\	spi-	4.ee\	spi-	4.gg\	ſpi-
.	.	.	.	.	.	.	.	8e\	-ri-	8e\	-ri-	8ee\	-ri-	8gg\	-ri-
=75-	=75-	=75-	=75-	=75-	=75-	=75-	=75-	=75-	=75-	=75-	=75-	=75-	=75-	=75-	=75-
2r	.	2r	.	2r	.	2r	.	1A	-tu	2e\	-tu	1ee	-tu	1aa	-tu
2d\	cum	2f\	Cum	2dd\	Cum	2ff\	Cum	.	.	2r	.	.	.	.	.
=76-	=76-	=76-	=76-	=76-	=76-	=76-	=76-	=76-	=76-	=76-	=76-	=76-	=76-	=76-	=76-
4c\	ſan-	4e\	ſan-	4ee\	san-	4gg\	ſan-	1r	.	1r	.	1r	.	1r	.
*custos:e	*	*	*	*	*	*	*	*	*	*	*	*	*	*	*
4A/	-cto	4a\	-cto	4ee\	-cto	4aa\	-cto	.	.	.	.	.	.	.	.
!LO:LB:g=original	!	!	!	!	!	!	!	!	!	!	!	!	!	!	!
4.e\	spi-	4.e\	spi-	4.ee\	spi-	4.gg\	spi-	.	.	.	.	.	.	.	.
8e\	-ri-	8e\	-ri-	8ee\	-ri-	8gg\	-ri-	.	.	.	.	.	.	.	.
=77-	=77-	=77-	=77-	=77-	=77-	=77-	=77-	=77-	=77-	=77-	=77-	=77-	=77-	=77-	=77-
1A	-tu	1e	-tu	1ee	-tu	1aa	-tu	2r	.	2r	.	2r	.	2r	.
.	.	.	.	.	.	.	.	2A/	Lau-	2e\	Lau-	2cc\	Lau-	2ee\	Lau-
=78-	=78-	=78-	=78-	=78-	=78-	=78-	=78-	=78-	=78-	=78-	=78-	=78-	=78-	=78-	=78-
*	*	*custos:e	*	*	*	*	*	*	*	*	*	*	*	*	*
2r	.	2r	.	2r	.	2r	.	2d\	-de-	2d\	-de-	2dd\	-de-	2ff\	-de-
*	*	*	*	*custos:dd	*	*	*	*	*	*	*	*	*	*	*
!	!	!LO:LB:g=original	!	!LO:TX:a:t=P:problem=# above	!	!	!	!	!	!	!	!LO:SIC:v:s=2cc#\	!	!	!
2A/	Lau-	2e\	Lau-	2cc#X\	Lau-	2ee\	Lau-	2A/	-mus	2e\	-mus	2cc\	-mus	2ee\	-mus
=79-	=79-	=79-	=79-	=79-	=79-	=79-	=79-	=79-	=79-	=79-	=79-	=79-	=79-	=79-	=79-
!	!	!	!	!LO:LB:g=original	!	!	!	!	!	!	!	!	!	!	!
2d\	-de-	2d\	-de-	2dd\	-de-	2ff\	-de-	2r	.	2r	.	2r	.	2r	.
!LO:SIC:v:s=2c#\	!	!	!	!LO:TX:a:t=P:problem=# above	!	!	!	!	!	!	!	!	!	!	!
2c\	-mus	2e\	-mus	2cc#X\	-mus	2gg\	-mus	2c\	et	2g\	et	2ee\	et	2gg\	et
=80-	=80-	=80-	=80-	=80-	=80-	=80-	=80-	=80-	=80-	=80-	=80-	=80-	=80-	=80-	=80-
*	*	*	*	*	*	*custos:gg	*	*	*	*	*	*	*	*	*
2r	.	2r	.	2r	.	2r	.	4f\	ſu-	4f\	su-	4ff\	su-	4aa\	ſu-
.	.	.	.	.	.	.	.	4f\	-per	4f\	-per	4ff\	-per	4aa\	-per
!	!	!	!	!	!	!LO:LB:g=original	!	!	!	!	!	!	!	!	!
2c\	et	2b\	et	2ee\	et	2gg\	et	4e\	e-	4c/	e-	4gg\	e-	4gg\	e-
.	.	.	.	.	.	.	.	4e\	-xal-	4c/	-xal-	4cc\	-xal-	4gg\	-xal-
=81-	=81-	=81-	=81-	=81-	=81-	=81-	=81-	=81-	=81-	=81-	=81-	=81-	=81-	=81-	=81-
4f\	ſu-	4f\	ſu-	4ccny\	ſu-	4aa\	ſu-	4f\	-te-	4c/	-te-	4cc\	-te-	4ff\	-te-
4f\	-per	4f\	-per	4cc\	-per	4aa\	-per	4F/	-mus	4A/	-mus,	4cc\	-mus	4ff\	-mus
4e\	e-	4c\	e-	4ee\	e-	4gg\	e-	2c\	e-	4r	.	2cc\	e-	2gg\	e-
4e\	-xal-	4c\	-xal-	4ee\	-xal-	4gg\	-xal-	.	.	4c/	e-	.	.	.	.
=82-	=82-	=82-	=82-	=82-	=82-	=82-	=82-	=82-	=82-	=82-	=82-	=82-	=82-	=82-	=82-
*	*	*	*	*	*	*	*	*custos:c	*	*custos:g	*	*	*	*	*
4f\	-te-	4f\	-te-	4cc\	-te-	4ff\	-te-	2F,</	-um,	2f\	-um	2a/	-um	2aa\	-um
4F/	-mus	4a\	-mus	4cc\	-mus	4ff\	-mus	.	.	.	.	.	.	.	.
!	!	!	!	!	!	!	!	!LO:PB:g=original	!	!LO:PB:g=original	!	!	!	!	!
2c\	e-	2g\	e-	2ee\	e-	2gg\	e-	4r	.	4r	.	4r	.	4r	.
*	*	*	*	*	*	*	*	*	*	*	*	*	*	*	*ij
.	.	.	.	.	.	.	.	4c\	et	4g\	et	4gg\	et	4ee\	et
=83-	=83-	=83-	=83-	=83-	=83-	=83-	=83-	=83-	=83-	=83-	=83-	=83-	=83-	=83-	=83-
2F/	-um	2f\	-um	2cc\	-um	2aa\	-um	4f\	ſu-	4f\	ſu-	4aa\	su-	4ff\	ſu-
.	.	.	.	.	.	.	.	4f\	-per	4f\	-per	4aa\	-per	4ff\	-per
4r	.	4r	.	4r	.	4r	.	4e\	e-	4c/	e-	4gg\	e-	4gg\	e-
*	*	*	*	*	*ij	*	*ij	*	*	*	*	*	*	*	*
4c\	et	4cc\	et	4ee\	et	4gg\	et	4e\	-xal-	4c/	-xal-	4cc\	-xal-	4gg\	-xal-
=84-	=84-	=84-	=84-	=84-	=84-	=84-	=84-	=84-	=84-	=84-	=84-	=84-	=84-	=84-	=84-
4f\	ſu-	4f\	ſu-	4cc\	ſu-	4ff\	ſu-	4f\	-te-	4c/	-te-	4cc\	-te-	4aa\	-te-
4f\	-per	4f\	-per	4cc\	-per	4ff\	-per	4F/	-mus	4A/	-mus	4cc\	-m(us)	4aa\	-mus
4e\	e-	4c\	e-	4ee\	e-	4gg\	e-	2c\	e-	4r	.	2cc\	e-	2gg\	e-
4e\	-xal-	4c\	-xal-	4ee\	-xal-	4gg\	-xal-	.	.	4c/	e-	.	.	.	.
=85-	=85-	=85-	=85-	=85-	=85-	=85-	=85-	=85-	=85-	=85-	=85-	=85-	=85-	=85-	=85-
*	*	*	*	*	*	*	*	*	*	*	*	*	*	*custos:aa	*
4f\	-te-	4f\	-te-	4cc\	-te-	4aa\	-te-	2F/	-um	2f\	-um	2a/	-um	2ff\	-um
*	*	*	*	*	*	*	*	*	*	*	*	*	*	*	*Xij
4F/	-mus	4f\	-mus	4cc\	-mus	4aa\	-mus	.	.	.	.	.	.	.	.
*	*	*	*	*	*	*	*	*	*	*	*	*custos:ff	*	*	*
!	!	!	!	!	!	!	!	!	!	!	!	!	!	!LO:PB:g=original	!
2c\	e-	2g\	e-	2ee\	e-	2gg\	e-	2r	.	2r	.	2r	.	2r	.
=86-	=86-	=86-	=86-	=86-	=86-	=86-	=86-	=86-	=86-	=86-	=86-	=86-	=86-	=86-	=86-
!	!	!	!	!	!	!	!	!	!	!	!	!LO:LB:g=original	!	!	!
2F/	-um,	2a\	-um	2cc\	-um	2ff\	-um	4r	.	4r	.	4r	.	4r	.
*	*	*	*	*	*Xij	*	*Xij	*	*	*	*	*	*	*	*
.	.	.	.	.	.	.	.	4f\	in	4a\	in	4ff\	in	4aa\	in
2r	.	2r	.	2r	.	2r	.	4d\	ſae-	4a\	ſae-	4ff\	sae-	4aa\	sae-
.	.	.	.	.	.	.	.	4e\	-cu-	4e\	-cu-	4ee\	-cu-	4gg\	-cu-
=87-	=87-	=87-	=87-	=87-	=87-	=87-	=87-	=87-	=87-	=87-	=87-	=87-	=87-	=87-	=87-
4r	.	4r	.	4r	.	4r	.	2A/	-la	2e\	-la	2cc\	-la	2aa\	-la
*custos:d	*	*	*	*	*	*	*	*	*	*	*	*	*	*	*
4f\	in	4a\	in	4ff\	in	4aa\	in	.	.	.	.	.	.	.	.
!LO:PB:g=original	!	!	!	!	!	!	!	!	!	!	!	!	!	!	!
4d\	sae-	4a\	ſae-	4ff\	ſae-	4aa\	ſae-	2r	.	2r	.	2r	.	2r	.
4e\	-cu-	4e\	-cu-	4ee\	-cu-	4aa\	-cu-	.	.	.	.	.	.	.	.
=88-	=88-	=88-	=88-	=88-	=88-	=88-	=88-	=88-	=88-	=88-	=88-	=88-	=88-	=88-	=88-
2A/	-la,	2e\	-la	2ee,<\	-la	2aa\	-la	2r	.	2r	.	2r	.	2r	.
2d\	in	2r	.	2dd\	ſae-	2aa\	in	2d\	in	2f\	in	2ff\	in	2.aa\	in
=89-	=89-	=89-	=89-	=89-	=89-	=89-	=89-	=89-	=89-	=89-	=89-	=89-	=89-	=89-	=89-
1.A	sae-	2r	.	2.cc\	-cu-	1.aa	ſae-	1.A	sae-	1.a	ſae-	4ee\	sae-	.	.
.	.	.	.	.	.	.	.	.	.	.	.	4dd\	.	4ff\	sae-
*	*	*custos:a	*	*	*	*	*	*	*	*	*	*	*	*	*
.	.	2a\	in	.	.	.	.	.	.	.	.	4cc\	.	4ee\	.
*	*	*	*	*custos:ee	*	*	*	*	*	*	*	*	*	*	*
.	.	.	.	4dd\	-la	.	.	.	.	.	.	4dd\	.	4dd\	.
=90-	=90-	=90-	=90-	=90-	=90-	=90-	=90-	=90-	=90-	=90-	=90-	=90-	=90-	=90-	=90-
!	!	!	!	!LO:PB:g=original	!	!	!	!	!	!	!	!	!	!	!
!	!	!LO:LB:g=original	!	!LO:SIC:v:l:s=Sae-	!	!	!	!	!	!	!	!	!	!	!
.	.	2.a\	ſae-	4ee\	.	.	.	.	.	.	.	4ee\	.	4cc\	.
.	.	.	.	4ff\	.	.	.	.	.	.	.	4a/	.	4dd\	.
2A/	-cu-	.	.	2ee\	cu-	2aa\	-cu-	2A/	-cu-	2a\	-cu-	4.aa\	.	4.ee\	.
.	.	4a\	-cu-	.	.	.	.	.	.	.	.	.	.	.	.
.	.	.	.	.	.	.	.	.	.	.	.	8aa\	-cu-	8ee\	-cu-
=91-	=91-	=91-	=91-	=91-	=91-	=91-	=91-	=91-	=91-	=91-	=91-	=91-	=91-	=91-	=91-
!	!	!LO:TX:a:t=P:problem=# above	!	!	!	!	!	!	!	!LO:TX:b:t=P:problem=# below	!	!	!	!LO:SIC:v:s=1ff#	!
1D	-la	1f#X	-la	1dd	-la	1aa	-la	1D 1d	-la	1f#X	-la	1aa,<	-la,	1ff	-la
=92-	=92-	=92-	=92-	=92-	=92-	=92-	=92-	=92-	=92-	=92-	=92-	=92-	=92-	=92-	=92-
!	!	!	!	!	!	!	!	!	!	!	!	!	!	!LO:SIC:v:l:s=be-	!
1r	.	1r	.	1r	.	1r	.	4d\	Be-	4a\	Be-	4aa\	Be-	4ff\	e-
.	.	.	.	.	.	.	.	8d\	-ne-	8a\	-ne-	8aa\L	-ne-	8ff\L	-ne-
.	.	.	.	.	.	.	.	8d\	-di-	8a\	-di-	8ff\J	-di-	8aa\J	-di-
.	.	.	.	.	.	.	.	4d\	-ca-	4a\	-ca-	4dd\	-ca-	4ff\	-ca-
.	.	.	.	.	.	.	.	4d\	-mus	4fny\	-mus	4dd\	-m(us)	4ff\	-mus
=93-	=93-	=93-	=93-	=93-	=93-	=93-	=93-	=93-	=93-	=93-	=93-	=93-	=93-	=93-	=93-
4d\	Be-	4fny\	Be-	4dd\	Be-	4ff\	Be-	2d\	Pa-	2f\	Pa-	2ff\	Pa-	2dd\	Pa-
8d\	-ne-	8f\	-ne-	8dd\	-ne-	8ff\	-ne-	.	.	.	.	.	.	.	.
!	!	!	!	!	!	!LO:TX:t=P:problem=niewraźne źródło	!	!	!	!	!	!	!	!	!
8d\	-di-	8f\	-di-	8ff\	-di-	8aa\	-di-	.	.	.	.	.	.	.	.
*	*	*	*	*	*	*	*	*custos:d	*	*custos:a	*	*	*	*	*
4d\	-ca-	4f\	-ca-	4dd\	-ca-	4ff\	-ca-	2D\ 2d	-tre(m)	2d\	-trem	2ff\	-trem	2a,</	-trem,
*	*	*	*	*	*	*custos:ff	*	*	*	*	*	*	*	*	*
4d\	-mus	4f\	-mus	4dd\	-m(us)	4ff\	-m(us)	.	.	.	.	.	.	.	.
=94-	=94-	=94-	=94-	=94-	=94-	=94-	=94-	=94-	=94-	=94-	=94-	=94-	=94-	=94-	=94-
*	*	*	*	*	*	*	*	*	*	*	*	*	*ij	*	*ij
!	!	!	!	!	!	!LO:PB:g=original	!	!LO:LB:g=original	!	!LO:LB:g=original	!	!	!	!	!
2d\	Pa-	2f\	Pa-	2dd\	Pa-	2ff\	Pa-	4d\	Be-	4a\	Be-	4aa\	Be-	4ff\	Be-
.	.	.	.	.	.	.	.	8d\	-ne-	8a\	-ne-	8aa\L	-ne-	8ff\L	-ne-
.	.	.	.	.	.	.	.	8d\	-di-	8a\	-di-	8ff\J	-di-	8aa\J	-di-
2D/	-trem	2d\	-trem	2ff\	-trem,	2aa\	-trem	4d\	-ca-	4a\	-ca-	4dd\	-ca-	4ff\	-ca-
.	.	.	.	.	.	.	.	4d\	-mus	4f\	-mus	4dd\	-m(us)	4ff\	-mus
=95-	=95-	=95-	=95-	=95-	=95-	=95-	=95-	=95-	=95-	=95-	=95-	=95-	=95-	=95-	=95-
*	*ij	*	*ij	*	*ij	*	*	*	*	*	*	*	*	*	*
4d\	Be-	4f\	Be-	4dd\	Be-	4ff\	Be-	2d\	Pa-	2f\	Pa-	2ff\	Pa-	2dd\	Pa-
8d\	-ne-	8f\	-ne-	8dd\	-ne-	8ff\	-ne-	.	.	.	.	.	.	.	.
8d\	-di-	8f\	-di-	8ff\	-di-	8aa\	-di-	.	.	.	.	.	.	.	.
4d\	-ca-	4f\	-ca-	4dd\	-ca-	4ff\	-ca-	2D\ 2d	-trem	2d\	-trem	2ff\	-trem	2a/	-trem
*	*	*	*	*	*	*	*	*	*	*	*	*	*Xij	*	*Xij
4d\	-mus	4f\	-mus	4dd\	-m(us)	4ff\	-mus	.	.	.	.	.	.	.	.
=96-	=96-	=96-	=96-	=96-	=96-	=96-	=96-	=96-	=96-	=96-	=96-	=96-	=96-	=96-	=96-
!	!	!	!	!	!	!	!	!	!	!	!	!	!	!LO:LB:g=original	!
2d\	Pa-	2f\	Pa-	2dd\	Pa-	2ff\	Pa-	2r	.	2r	.	2r	.	2r	.
*	*	*	*	*	*	*	*	*	*	*	*	*custos:ee	*	*	*
4D/	-trem	2d\	-trem	4ff\	-trem	4aa\	-trem	2d\	et	2a\	et	2ff\	et	2aa\	et
*	*Xij	*	*Xij	*	*Xij	*	*	*	*	*	*	*	*	*	*
4D/	et	.	.	4dd\	et	4aa\	et	.	.	.	.	.	.	.	.
=97-	=97-	=97-	=97-	=97-	=97-	=97-	=97-	=97-	=97-	=97-	=97-	=97-	=97-	=97-	=97-
!	!	!	!	!	!	!	!	!	!	!	!	!LO:LB:g=original	!	!	!
2.A/	Fi-	4r	.	2.ee\	Fi-	2.aa\	Fi-	2.A/	Fi-	2.a\	Fi-	2.ee\	Fi-	2.aa\	Fi-
.	.	4e\	et	.	.	.	.	.	.	.	.	.	.	.	.
.	.	4.A/	Fi-	.	.	.	.	.	.	.	.	.	.	.	.
4A/	-li-	.	.	4ee\	-li-	4aa\	-li-	4A/	-li-	4a\	-li-	4aa\	-li-	4ee\	-li-
.	.	8A/	-li-	.	.	.	.	.	.	.	.	.	.	.	.
=98-	=98-	=98-	=98-	=98-	=98-	=98-	=98-	=98-	=98-	=98-	=98-	=98-	=98-	=98-	=98-
!	!	!	!	!	!	!	!	!	!	!LO:TX:b:t=P:problem=# below	!	!	!	!LO:TX:b:t=P:problem=# below	!
1D	-um	1d	-um	1dd	-um	1aa	-um,	1d	-um	1f#X	-um,	1aa	-um	1ff#X	-um
=99-	=99-	=99-	=99-	=99-	=99-	=99-	=99-	=99-	=99-	=99-	=99-	=99-	=99-	=99-	=99-
1r	.	1r	.	1r	.	1r	.	4d\	Be-	4a\	Be-	4ff\	Be-	4aa\	Be-
.	.	.	.	.	.	.	.	8d\	-ne-	8a\	-ne-	8ff\L	-ne-	8aa\L	-ne-
.	.	.	.	.	.	.	.	8d\	-di-	8a\	-di-	8aa\J	-di-	8ffny\J	-di-
.	.	.	.	.	.	.	.	4d\	-ca-	4a\	-ca-	4ff\	-ca-	4dd\	-ca-
.	.	.	.	.	.	.	.	4d\	-m(us)	4fny\	-mus	4ff\	-m(us)	4dd\	-mus
=100-	=100-	=100-	=100-	=100-	=100-	=100-	=100-	=100-	=100-	=100-	=100-	=100-	=100-	=100-	=100-
*custos:d	*	*	*	*	*	*	*	*	*	*	*	*	*	*	*
4d\	Be-	4f\	Be-	4dd\	Be-	4ff\	Be-	2d\	Pa-	2f\	Pa-	2dd\	Pa-	2ff\	Pa-
!LO:LB:g=original	!	!	!	!	!	!	!	!	!	!	!	!	!	!	!
8d\	-ne-	8f\	-ne-	8dd\	-ne-	8ff\	-ne-	.	.	.	.	.	.	.	.
8d\	-di-	8f\	-di-	8ff\	-di-	8aa\	-di-	.	.	.	.	.	.	.	.
4d\	-ca-	4f\	-ca-	4dd\	-ca-	4ff\	-ca-	2D\ 2d	-trem	2d\	-trem,	2a,</	-trem	2ff\	-trem,
4d\	-mus	4f\	-mus	4dd\	-m(us)	4ff\	-m(us)	.	.	.	.	.	.	.	.
=101-	=101-	=101-	=101-	=101-	=101-	=101-	=101-	=101-	=101-	=101-	=101-	=101-	=101-	=101-	=101-
*	*	*	*	*	*	*	*	*	*ij	*	*ij	*	*ij	*	*ij
*	*	*custos:d	*	*	*	*	*	*	*	*	*	*	*	*	*
2d\	Pa-	2f\	Pa-	2dd\	Pa-	2ff\	Pa-	4d\	Be-	4a\	Be-	4ff\	Be-	4gg\	Be-
.	.	.	.	.	.	.	.	8d\	-ne-	8a\	-ne-	8ff\L	-ne-	8gg\L	-ne-
.	.	.	.	.	.	.	.	8d\	-di-	8a\	-di-	8aa\J	-di-	8ff\J	-di-
*	*	*	*	*custos:dd	*	*	*	*	*	*	*	*	*	*	*
!	!	!LO:PB:g=original	!	!	!	!	!	!	!	!	!	!	!	!	!
2D/	-trem	2d\	-trem	2ff\	-trem	2aa\	-trem	4d\	-ca-	4a\	-ca-	4ff\	-ca-	4dd\	-ca-
.	.	.	.	.	.	.	.	4d\	-mus	4f\	-mus	4ff\	-m(us)	4dd\	-mus
=102-	=102-	=102-	=102-	=102-	=102-	=102-	=102-	=102-	=102-	=102-	=102-	=102-	=102-	=102-	=102-
*	*ij	*	*	*	*	*	*ij	*	*	*	*	*	*	*	*
!	!	!	!	!LO:LB:g=original	!	!	!	!	!	!	!	!	!	!	!
4d\	Be-	4f\	Be-	4dd\	Be-	4ff\	Be-	2d\	Pa-	2f\	Pa-	2dd\	Pa-	2ff\	Pa-
8d\	-ne-	8f\	-ne-	8dd\	-ne-	8ff\	-ne-	.	.	.	.	.	.	.	.
8d\	-di-	8f\	-di-	8ff\	-di-	8aa\	-di-	.	.	.	.	.	.	.	.
4d\	-ca-	4f\	-ca-	4dd\	-ca-	4ff\	-ca-	2D\ 2d	-trem	2d\	-trem	2a/	-trem	2ff\	-trem
*	*	*	*	*	*	*	*	*	*Xij	*	*Xij	*	*Xij	*	*Xij
4d\	-mus	4f\	-mus	4dd\	-mus	4ff\	-mus	.	.	.	.	.	.	.	.
=103-	=103-	=103-	=103-	=103-	=103-	=103-	=103-	=103-	=103-	=103-	=103-	=103-	=103-	=103-	=103-
*	*	*	*	*	*	*	*	*	*	*custos:a	*	*	*	*	*
2d\	Pa-	2f\	Pa-	2dd\	Pa-	2ff\	Pa-	2r	.	2r	.	2r	.	2r	.
!	!	!	!	!	!	!	!	!	!	!LO:LB:g=original	!	!	!	!	!
4D/	-trem	2d\	-trem	4ff\	-trem	4aa\	-trem	2d\	et	2a\	et	2aa\	et	2ff\	et
*	*Xij	*	*	*	*	*	*Xij	*	*	*	*	*	*	*	*
*	*	*	*	*	*	*custos:aa	*	*	*	*	*	*	*	*	*
4D/	et	.	.	4dd\	et	4aa\	et	.	.	.	.	.	.	.	.
=104-	=104-	=104-	=104-	=104-	=104-	=104-	=104-	=104-	=104-	=104-	=104-	=104-	=104-	=104-	=104-
!	!	!	!	!	!	!LO:LB:g=original	!	!	!	!	!	!	!	!	!
2.A/	Fi-	4r	.	2.ee\	Fi-	2.aa\	Fi-	2.A/	Fi-	2.a\	Fi-	2.aa\	Fi-	2.ee\	Fi-
.	.	4e\	et	.	.	.	.	.	.	.	.	.	.	.	.
.	.	4.A/	Fi-	.	.	.	.	.	.	.	.	.	.	.	.
4A/	-li-	.	.	4ee\	-li-	4aa\	-li-	4A/	-li-	4a\	-li-	4ee\	-li-	4aa\	-li-
.	.	8A/	-li-	.	.	.	.	.	.	.	.	.	.	.	.
=105-	=105-	=105-	=105-	=105-	=105-	=105-	=105-	=105-	=105-	=105-	=105-	=105-	=105-	=105-	=105-
*	*	*	*	*	*	*	*	*custos:d	*	*	*	*	*	*	*
!	!	!	!	!	!	!	!	!	!	!LO:TX:b:t=P:problem=# below	!	!LO:SIC:v:s=2ff#	!	!	!
1d	-um	1d	-um	1ee	-um,	1aa	-um	2d\	-um	2f#X\	-um	2ff\	-um	2aa\	-um
!	!	!	!	!	!	!	!	!LO:LB:g=original	!	!	!	!	!	!	!
.	.	.	.	.	.	.	.	4r	.	4r	.	2dd\	cum	4r	.
!	!	!	!	!	!	!	!	!	!	!	!	!	!	!LO:SIC:v:s=4ff#\	!
.	.	.	.	.	.	.	.	4d\	Cum	4f#\	Cum	.	.	4ff\	Cum
=106-	=106-	=106-	=106-	=106-	=106-	=106-	=106-	=106-	=106-	=106-	=106-	=106-	=106-	=106-	=106-
1r	.	1r	.	1r	.	1r	.	4c\	ſan-	4e\	ſan-	4ee\	san-	4gg\	ſan-
*	*	*	*	*	*	*	*	*	*	*	*	*	*	*custos:gg	*
.	.	.	.	.	.	.	.	4A/	-cto	4a\	-cto	4ee\	-cto	4aa\	-cto
!	!	!	!	!	!	!	!	!	!	!	!	!	!	!LO:LB:g=original	!
.	.	.	.	.	.	.	.	4.e\	spi-	4.e\	ſpi-	4.ee\	spi-	4.gg\	ſpi-
.	.	.	.	.	.	.	.	8e\	-ri-	8e\	-ri-	8ee\	-ri-	8gg\	-ri-
=107-	=107-	=107-	=107-	=107-	=107-	=107-	=107-	=107-	=107-	=107-	=107-	=107-	=107-	=107-	=107-
2r	.	2r	.	2r	.	2r	.	1A	-tu	2e\	-tu	2ee\	-tu	1aa	-tu
2d\	Cum	2f\	Cum	2dd\	cum	2ff\	cum	.	.	2r	.	2r	.	.	.
=108-	=108-	=108-	=108-	=108-	=108-	=108-	=108-	=108-	=108-	=108-	=108-	=108-	=108-	=108-	=108-
4c\	ſan-	4e\	ſan-	4ee\	ſan-	4gg\	ſan-	1r	.	1r	.	1r	.	1r	.
4A/	-cto	4a\	-cto	4ee\	-cto	4aa\	-cto	.	.	.	.	.	.	.	.
4.e\	spi-	4.e\	spi-	4.ee\	spi-	4.gg\	spi-	.	.	.	.	.	.	.	.
8e\	-ri-	8e\	-ri-	8ee\	-ri-	8ff\	-ri-	.	.	.	.	.	.	.	.
=109-	=109-	=109-	=109-	=109-	=109-	=109-	=109-	=109-	=109-	=109-	=109-	=109-	=109-	=109-	=109-
*	*	*	*	*	*	*	*	*	*	*	*	*custos:cc	*	*	*
1A	-tu	1e	-tu	1ee	-tu	1aa	-tu	2r	.	2r	.	2r	.	2r	.
!	!	!	!	!	!	!	!	!	!	!	!	!LO:LB:g=original	!	!	!
.	.	.	.	.	.	.	.	2A/	Lau-	2e\	Lau-	2cc\	Lau-	2ee\	Lau-
=110-	=110-	=110-	=110-	=110-	=110-	=110-	=110-	=110-	=110-	=110-	=110-	=110-	=110-	=110-	=110-
2r	.	2r	.	2r	.	2r	.	2d\	-de-	2d\	-de-	2dd\	-de-	2ff\	-de-
2A/	Lau-	2e\	Lau-	2cc\	Lau-	2ee\	Lau-	2A/	-mus,	2e\	-mus	2cc\	-mus	2ee\	-mus
=111-	=111-	=111-	=111-	=111-	=111-	=111-	=111-	=111-	=111-	=111-	=111-	=111-	=111-	=111-	=111-
2d\	-de-	2d\	-de-	2dd\	-de-	2ff\	-de-	2r	.	2r	.	2r	.	2r	.
!	!	!	!	!LO:TX:a:t=P:problem=# above	!	!	!	!	!	!	!	!	!	!	!
2A/	-mus	2e\	-mus	2cc#X\	-mus	2ee\	-mus	2A/	et	2a\	et	2ee\	et	2aa\	et
=112-	=112-	=112-	=112-	=112-	=112-	=112-	=112-	=112-	=112-	=112-	=112-	=112-	=112-	=112-	=112-
2r	.	2r	.	2r	.	2r	.	4d\	ſu-	4fny\	ſu-	4ff\	su-	4aa\	ſu-
.	.	.	.	.	.	.	.	4d\	-per	4f\	-per	4ff\	-per	4aa\	-per
*custos:d	*	*	*	*	*	*	*	*	*	*	*	*	*	*	*
2A/	et	2a\	et	2ee\	et	2aa\	et	4c\	e-	4a\	e-	4ee\	e-	4aa\	e-
.	.	.	.	.	.	.	.	4c\	-xal-	4a\	-xal-	4aa\	-xal-	4ee\	-xal-
=113-	=113-	=113-	=113-	=113-	=113-	=113-	=113-	=113-	=113-	=113-	=113-	=113-	=113-	=113-	=113-
!LO:LB:g=original	!	!	!	!	!	!	!	!	!	!	!	!	!	!	!
4d\	ſu-	4d\	ſu-	4dd\	ſu-	4aa\	ſu-	4d\	-te-	4f\	-te-	4aa\	-te-	4ff\	-te-
*	*	*custos:A	*	*	*	*	*	*	*	*	*	*	*	*	*
4d\	-per	4d\	-per	4dd\	-per	4aa\	-per	4d\	-mus	4d\	-mus	4aa\	-mur	4ee\	-mus
!LO:TX:a:t=P:problem=# above	!	!LO:LB:g=original	!	!	!	!	!	!	!	!	!	!	!	!	!
4c#X\	e-	4A/	e-	4ee\	e-	4aa\	e-	2A/	e-	2e\	e-	2aa\	e-	2ee\	e-
!LO:TX:a:t=P:problem=# above	!	!	!	!	!	!	!	!	!	!	!	!	!	!	!
4c#X\	-xal-	4A/	-xal-	4a/	-xal-	4ee\	-xal-	.	.	.	.	.	.	.	.
=114-	=114-	=114-	=114-	=114-	=114-	=114-	=114-	=114-	=114-	=114-	=114-	=114-	=114-	=114-	=114-
*	*	*	*	*	*	*	*	*	*	*custos:a	*	*	*	*	*
4d\	-te-	4d\	-te-	4a/	-te-	4ff\	-te-	2d\	-um	2f\	-um	2ff\	-um	2dd\	-um
*	*	*	*	*custos:cc#	*	*	*	*	*	*	*	*	*	*	*
4D/	-mus	4a\	-mus	4dd\	-mus	4ff\	-mus	.	.	.	.	.	.	.	.
!	!	!	!	!LO:TX:a:t=P:problem=# above	!	!	!	!	!	!LO:LB:g=original	!	!	!	!	!
!	!	!	!	!LO:LB:g=original	!	!	!	!	!	!	!	!	!	!	!
2A/	e-	2a\	e-	2cc#X\	e-	2ee\	e-	4r	.	4r	.	4r	.	4r	.
.	.	.	.	.	.	.	.	4A/	et	4a\	et	4aa\	et	4ee\	et
=115-	=115-	=115-	=115-	=115-	=115-	=115-	=115-	=115-	=115-	=115-	=115-	=115-	=115-	=115-	=115-
!	!	!LO:TX:b:t=P:problem=# below	!	!	!	!	!	!	!	!LO:SIC:v:s=4f#\	!	!	!	!LO:SIC:v:s=4ff#\	!
2D/	-um	2f#X\	-um	2dd\	-um	2dd\	-um	4d\	ſu-	4f\	ſu-	4aa\	ſu-	4ff\	ſu-
!	!	!	!	!	!	!	!	!	!	!LO:SIC:v:s=4f#\	!	!	!	!LO:SIC:v:s=4ff#\	!
.	.	.	.	.	.	.	.	4d\	-per	4f\	-per	4aa\	-per	4ff\	-per
4r	.	4r	.	4r	.	4r	.	4c\	e-	4a\	e-	4aa\	e-	4ee\	e-
4A/	et	4a\	et	4ee\	et	4ee\	et	4c\	-xal-	4a\	-xal-	4ee\	-xal-	4aa\	-xal-
=116-	=116-	=116-	=116-	=116-	=116-	=116-	=116-	=116-	=116-	=116-	=116-	=116-	=116-	=116-	=116-
!	!	!	!	!LO:SIC:v:s=4dd\	!	!	!	!	!	!	!	!	!	!	!
4d\	ſu-	4d\	ſu-	4ccny\	ſu-	4ff\	ſu-	4d\	-te-	4f\	-te-	4ff\	-te-	4aa\	-te-
*	*	*	*	*	*	*custos:ee	*	*custos:A	*	*	*	*	*	*	*
!	!	!	!	!LO:SIC:v:s=4dd\	!	!	!	!	!	!	!	!	!	!	!
4d\	-per	4d\	-per	4cc\	-per	4ff\	-per	4D/	-mus	4d\	-mus	4ff\	-mus	4aa\	-mus
!LO:TX:a:t=P:problem=# above	!	!	!	!	!	!LO:LB:g=original	!	!LO:LB:g=original	!	!	!	!	!	!	!
4c#X\	e-	4A/	e-	4ee\	e-	4ee\	e-	2A/	e-	2e\	e-	2ee\	e-	2aa\	e-
!LO:TX:a:t=P:problem=# above	!	!	!	!	!	!	!	!	!	!	!	!	!	!	!
4c#X\	-xal-	4A/	-xal-	4ee\	-xal-	4aa\	-xal-	.	.	.	.	.	.	.	.
=117-	=117-	=117-	=117-	=117-	=117-	=117-	=117-	=117-	=117-	=117-	=117-	=117-	=117-	=117-	=117-
4d\	-te-	4d\	-te-	4ff\	-te-	4aa\	-te-	2d\	-um	2f\	-um	2dd\	-um	2ff\	-um
4D/	-mus	4a\	-mus	4ff\	-mus	4aa\	-mus	.	.	.	.	.	.	.	.
2A/	e-	2a\	e-	2ee\	e-	2aa\	e-	2r	.	2r	.	2r	.	2r	.
=118-	=118-	=118-	=118-	=118-	=118-	=118-	=118-	=118-	=118-	=118-	=118-	=118-	=118-	=118-	=118-
*	*	*	*	*	*	*	*	*	*	*	*	*	*	*custos:aa	*
!	!	!LO:TX:b:t=P:problem=# below	!	!	!	!LO:SIC:v:s=2ff#	!	!	!	!	!	!	!	!	!
2D/	-um	2f#X\	-um	2dd\	-um,	2ff\	-um	2r	.	2r	.	2r	.	2r	.
!	!	!	!	!	!	!	!	!	!	!	!	!	!	!LO:LB:g=original	!
2A/	in	4r	.	4r	.	4r	.	2A/	in	2e\	in	2ee\	in	2aa\	in
.	.	4c/	in	4a/	in	4ee\	in	.	.	.	.	.	.	.	.
=119-	=119-	=119-	=119-	=119-	=119-	=119-	=119-	=119-	=119-	=119-	=119-	=119-	=119-	=119-	=119-
2.E/	ſae-	2.e\	ſae-	2.b/	ſae-	2.ee\	ſae-	2.e\	ſae-	2.e\	ſae-	2.ee\	ſae-	2.gg\	ſae-
4E/	-cu-	4e\	-cu-	4b/	-cu-	4ee\	-cu-	4e\	-cu-	4e\	-cu-	4ee\	-cu-	4gg\	-cu-
=120-	=120-	=120-	=120-	=120-	=120-	=120-	=120-	=120-	=120-	=120-	=120-	=120-	=120-	=120-	=120-
2A/	-la	2e\	-la	2a/	-la,	2ee\	-la	2A/	-la	2e\	-la	2ee\	-la	2aa\	-la,
2D/	in	4r	.	2a/	in	2r	.	2d\	in	2f\	in	2dd\	in	2ff\	in
.	.	2a\	in	.	.	.	.	.	.	.	.	.	.	.	.
=121-	=121-	=121-	=121-	=121-	=121-	=121-	=121-	=121-	=121-	=121-	=121-	=121-	=121-	=121-	=121-
1.A	ſae-	.	.	1.a	ſae-	2r	.	1.A	ſae-	1.a	ſae-	2.cc\	ſae-	2.ee\	ſae-
.	.	4a\	ſae-	.	.	.	.	.	.	.	.	.	.	.	.
.	.	1a\	.	.	.	2ff\	in	.	.	.	.	.	.	.	.
.	.	.	.	.	.	.	.	.	.	.	.	4dd\	.	4dd\	.
=122-	=122-	=122-	=122-	=122-	=122-	=122-	=122-	=122-	=122-	=122-	=122-	=122-	=122-	=122-	=122-
.	.	.	.	.	.	2.aa\	ſae-	.	.	.	.	4ee\	.	4cc\	.
.	.	.	.	.	.	.	.	.	.	.	.	2dd\	.	4a/	.
!	!	!	!	!	!	!	!	!	!	!	!	!	!	!LO:TX:t=P:problem=niewyraźne źródło	!
2A/	-cu-	2A/	-cu-	2a/	-cu-	.	.	2A/	-cu-	2a\	-cu-	.	.	4.aa\	.
!	!	!	!	!	!	!	!	!	!	!	!	!LO:TX:a:t=P:problem=# above	!	!	!
.	.	.	.	.	.	4aa\	-cu-	.	.	.	.	4cc#X\	-cu-	.	.
.	.	.	.	.	.	.	.	.	.	.	.	.	.	8aa\	-cu-
=123-	=123-	=123-	=123-	=123-	=123-	=123-	=123-	=123-	=123-	=123-	=123-	=123-	=123-	=123-	=123-
1D;	-la	1d;	-la	1a;	-la	1aa;	-la	1d;	-la	1f;	-la	1dd;	-la.	1aa;	-la.
=-	=-	=-	=-	=-	=-	=-	=-	=-	=-	=-	=-	=-	=-	=-	=-
*-	*-	*-	*-	*-	*-	*-	*-	*-	*-	*-	*-	*-	*-	*-	*-
!!!system-decoration: [(s1,s2,s3,s4)][(s5,s6,s7,s8)]
!!!RDF**kern: < = below
!!!RDF**kern: > = above
!!!AIN: 8 empty
!!!ENC: Anastazja Marusiak
!!!END: 2021-10-17
!!!ENC: Marta Chmielewska
!!!END: 2021-10-22
